X: 1
T: the Braes of Tulliemet
R: strathspey
O:
B:
D:
Z: John Chambers <jc:trillian.mit.edu>
M: 4/4
L: 1/8
K: EDor
|: F | "Em"E<B B>A B>A B<d | "D"F>D A>D B>D A>F | "Em"E<B B>A B>A B<e | "D"d>B A>F "Em"~E3 :|
|| B | "Em"e>B e<g e>B e<g | "D"d>A d<f d>A d<f | "Em"e>B e<g e>B e<g | "D"d>B A>F "Em"~E3B ||
|| "Em"e>B e<g (3Beg (3bge | "D"d>A d<f (3Adf (3afd | "Em"e<B B>c "D"d>e f>e | d>B A>F "Em"~E3 |]
